X:1
T:Goldberg Variations: Variation VIII
T:BWV 988
T:J. S. Bach
%%score { 1 | 2 }
L:1/8
Q:1/4=96
M:3/4
K:G
V:1 treble nm="Harp"
V:2 bass 
V:1
 D/G/B/A/ G/B/d/c/ B/d/g/ z/ | D/F/A/G/ F/A/c/B/ A/d/f/ z/ | B,/E/G/F/ E/G/B/A/ G/^c/e/ z/ | %3
 A,/D/F/E/ D/F/A/G/ F/A/d- | d/B/G/A/ B/G/D/E/ =F/D/B,/ z/ | e/c/A/B/ c/A/E/F/ G/E/C/ z/ | %6
 a/f/d/e/ f/d/A/B/ c/A/F/c/ | B/G/D/F/ G/D/B,/C/ D/B,/G,/A,/ | B,b/a/ g/f/e/d/ ^c/e/d/e/ | %9
 Aa/g/ f/e/d/^c/ B/d/c/d/ | Gg/f/ e/d/^c/B/ A/c/B/d/ | ^c/e/c/B/ c/A/E/F/ G/E/^C/E/ | %12
 DF Ad z/ c/A/F/ | GB dg z/ g/f/g/ | A^c eg z/ g/a/c/ | d/f/a/^c'/ d'/c'/4b/4a/4g/4f/4e/4 d2 | %16
[K:G] D/G/B/A/ G/B/d/c/ B/d/g/ z/ | D/F/A/G/ F/A/c/B/ A/d/f/ z/ | B,/E/G/F/ E/G/B/A/ G/^c/e/ z/ | %19
 A,/D/F/E/ D/F/A/G/ F/A/d- | d/B/G/A/ B/G/D/E/ =F/D/B,/ z/ | e/c/A/B/ c/A/E/F/ G/E/C/ z/ | %22
 a/f/d/e/ f/d/A/B/ c/A/F/c/ | B/G/D/F/ G/D/B,/C/ D/B,/G,/A,/ | B,b/a/ g/f/e/d/ ^c/e/d/e/ | %25
 Aa/g/ f/e/d/^c/ B/d/c/d/ | Gg/f/ e/d/^c/B/ A/c/B/d/ | ^c/e/c/B/ c/A/E/F/ G/E/^C/E/ | %28
 DF Ad z/ c/A/F/ | GB dg z/ g/f/g/ | A^c eg z/ g/a/c/ | d/f/a/^c'/ d'/c'/4b/4a/4g/4f/4e/4 d2 | %32
 A/d/f/e/ d/f/a/g/ f/a/c'/ z/ | D/G/B/A/ G/B/d/c/ B/d/=f/ z/ | e/c/A/B/ c/A/F/G/ A/F/^D/E/ | %35
 F/^D/B,/^C/[K:bass] D/B,/F,/G,/ A,/F,/_E,/F,/ | G,/B,/E/^D/[K:treble] E/G/B/A/ G/B/e/ z/ | %37
 E/A/c/B/ A/c/e/d/ c/e/a/ z/ | z/ c/B/f/ g/^d/e/G/ F/e/d/a/ | a/4g/4f/e z/ A/G/F/{F} E2- | %40
 Ee/d/ c/B/A/G/ F/^A/^c/e/ | d/F/d/c/ B/A/^G/F/ E/G/B/d/ | c/E/c/B/ A/c/e/d/ c/e/a/g/ | %43
 f/a/c'/b/ a/g/f/e/ d/f/a/c'/ | b/d'/g/a/ b/g/d/e/ =f/d/B/d/ | e/g/c/d/ e/c/A/B/ c/A/E/G/ | %46
 F/A/D/E/ F/D/A,/B,/ C/A,/F,/A,/ | B,/D/G,/A,/ B,/G,/B,/D/ G2 | A/d/f/e/ d/f/a/g/ f/a/c'/ z/ | %49
 D/G/B/A/ G/B/d/c/ B/d/=f/ z/ | e/c/A/B/ c/A/F/G/ A/F/^D/E/ | %51
 F/^D/B,/^C/[K:bass] D/B,/F,/G,/ A,/F,/_E,/F,/ | G,/B,/E/^D/[K:treble] E/G/B/A/ G/B/e/ z/ | %53
 E/A/c/B/ A/c/e/d/ c/e/a/ z/ | z/ c/B/f/ g/^d/e/G/ F/e/d/a/ | a/4g/4f/e z/ A/G/F/ FE- | %56
 Ee/d/ c/B/A/G/ F/^A/^c/e/ | d/F/d/c/ B/A/^G/F/ E/G/B/d/ | c/E/c/B/ A/c/e/d/ c/e/a/g/ | %59
 f/a/c'/b/ a/g/f/e/ d/f/a/c'/ | b/d'/g/a/ b/g/d/e/ =f/d/B/d/ | e/g/c/d/ e/c/A/B/ c/A/E/G/ | %62
 F/A/D/E/ F/D/A,/B,/ C/A,/F,/A,/ | B,/D/G,/A,/ B,/G,/B,/D/ !fermata!G2 |] %64
V:2
 G,D, B,,G,, z/ G,/F,/E,/ | F,D, A,,F,, z/ F,/E,/D,/ | E,B,, G,,E,, z/ E,/D,/^C,/ | %3
 D,A,, F,,D,, z/ C,/B,,/A,,/ | B,,D, G,B, z/ G,/=F,/G,/ | C,E, A,C z/ A,/G,/A,/ | %6
 D,F, A,D z/ D,/C,/D,/ | G,,G, B,,D, G,, z |[K:treble] G,/B,/D/C/ B,/D/G/F/ E/G/B/ z/ | %9
 F,/A,/^C/B,/ A,/C/F/E/ D/F/A/ z/ |[K:bass] E,/G,/B,/A,/ G,/B,/E/D/[K:treble] ^C/E/G/F/ | %11
 E/G/^c/B/ A/c/e/d/ c/e/a/g/ | f/a/d/e/ f/d/A/B/ c/A/F/A/ | B/d/G/A/ B/G/E/F/ G/E/B,/D/ | %14
[K:bass] ^C/E/A,/B,/ C/A,/E,/F,/ G,/E,/^C,/E,/ | F,/A,/D,/E,/ F,/D,/F,/A,/ D2 | %16
[K:G] G,D, B,,G,, z/ G,/F,/E,/ | F,D, A,,F,, z/ F,/E,/D,/ | E,B,, G,,E,, z/ E,/D,/^C,/ | %19
 D,A,, F,,D,, z/ C,/B,,/A,,/ | B,,D, G,B, z/ G,/=F,/G,/ | C,E, A,C z/ A,/G,/A,/ | %22
 D,F, A,D z/ D,/C,/D,/ | G,,G, B,,D, G,, z | G,/B,/D/C/ B,/D/G/F/ E/G/B/ z/ | %25
 F,/A,/^C/B,/ A,/C/F/E/ D/F/A/ z/ | E,/G,/B,/A,/ G,/B,/E/D/[K:treble] ^C/E/G/F/ | %27
 E/G/^c/B/ A/c/e/d/ c/e/a/g/ | f/a/d/e/ f/d/A/B/ c/A/F/A/ | B/d/G/A/ B/G/E/F/ G/E/B,/D/ | %30
[K:bass] ^C/E/A,/B,/ C/A,/E,/F,/ G,/E,/^C,/E,/ | F,/A,/D,/E,/ F,/D,/F,/A,/ D2 | %32
 DA, F,D, z/ C/B,/A,/ | G,D, B,,G,, z/ =F,/E,/D,/ | C,/E,/A,/G,/ F,/A,/C/B,/ A,/C/^D/^C/ | %35
[K:treble] B,/^D/F/E/ D/F/A/G/ F/A/c/A/ | B/G/E/F/ G/E/B,/^D/[K:bass] E/B,/G,/B,/ | %37
 C/A,/E,/^G,/ A,/E,/C,/D,/ E,/C,/A,,/C,/ | ^D,,^D, E,C, A,,B,, | E,,G,, B,,E, z/ D,/C,/B,,/ | %40
 C,/E,/G,/=F,/ E,/G,/C/B,/ ^A,/^C/F/ z/ | B,,/D,/F,/E,/ D,/F,/B,/A,/ ^G,/B,/E/ z/ | %42
 A,,/C,/E,/D,/ C,/A,,/C,/E,/ A,/C/F,/G,/ | A,/F,/D,/E,/ F,/D,/A,,/B,,/ C,/A,,/F,,/D,,/ | %44
 G,,B,, D,=F, z/ F,/E,/D,/ | C,E, G,C z/ C/B,/C/ | D,F, A,C z/ C/D/A,/ | %47
 G,/B,/D/F/ G/F/4E/4D/4C/4B,/4A,/4 G,2 | DA, F,D, z/ C/B,/A,/ | G,D, B,,G,, z/ =F,/E,/D,/ | %50
 C,/E,/A,/G,/ F,/A,/C/B,/ A,/C/^D/^C/ | B,/^D/F/E/ D/F/A/G/ F/A/c/A/ | %52
 B/G/E/F/ G/E/B,/^D/ E/B,/G,/B,/ | C/A,/E,/^G,/ A,/E,/C,/D,/ E,/C,/A,,/C,/ | ^D,,^D, E,C, A,,B,, | %55
 E,,G,, B,,E, z/ D,/C,/B,,/ | C,/E,/G,/=F,/ E,/G,/C/B,/ ^A,/^C/F/ z/ | %57
 B,,/D,/F,/E,/ D,/F,/B,/A,/ ^G,/B,/E/ z/ | A,,/C,/E,/D,/ C,/A,,/C,/E,/ A,/C/F,/G,/ | %59
 A,/F,/D,/E,/ F,/D,/A,,/B,,/ C,/A,,/F,,/D,,/ | G,,B,, D,=F, z/ F,/E,/D,/ | C,E, G,C z/ C/B,/C/ | %62
 D,F, A,C z/ C/D/A,/ | G,/B,/D/F/ G/F/4E/4D/4C/4B,/4A,/4 !fermata!G,2 |] %64

